X: 6626
T: Cavers Of Kirkcudbright
R: jig
M: 6/8
K: Dmajor
D2A AFA|ABA F2A|D2A AFA|d2c BAF|
D2A AFA|ABA F2A|G2F EDB|zGF EDB:|
BGD cAd-|dAG FED|BGD cAd-|def edc|
ABB cAd-|dAG FED|G2F EDB|zGF EDB:|

